X:1
T:Source : Melismata 1611. Bars regularised, Key signature changed. Xmas verses omitted. Bracketed words for last verse originally "for this our happy day" Last two words originally "Holy, Holy" Penultimate Sop. note changed from C to A 
T:Remember, O thou man (for Advent)
%%score [ ( 1 2 ) ( 3 4 ) ]
L:1/8
Q:1/4=200
M:3/2
K:Bb
V:1 treble nm="SA" snm="SA"
V:2 treble 
V:3 bass nm="TB" snm="TB"
V:4 bass 
V:1
"^Edited : Hackett, for Quintus Imperfectus\nCPDL licence applies." G4 G4 G4 | B6 A2 G4 | %2
 F6 F2 G4 | A6 ^F2"^Thomas Ravenscroft\n(1592-1633)" D4 |[M:3/2] G4 G4 G4 | B6 A2 G4 | %6
 (F2 F2) F4 G4 | A12 | B4 d4 d4 | d6 c2 B4 | A4 c4 (c2 c2) | c6 B2 A4 | B4 A4 G4 | ^F6 G2 A4 | %14
 c4 =B4 A4 | G12 |] %16
V:2
 D4 D4 D4 | G6 G2 D4 | D6 D2 B,4 | D6 =E2 ^F4 |[M:3/2] D4 D4 D4 | G6 G2 D4 | (D2 D2) D4 B,4 | D12 | %8
w: ||||||||
 F4 F4 F4 | F6 F2 F4 | F4 C4 (D2 =E2) | F6 F2 F4 | F4 F4 D4 | D6 D2 D4 | =E4 D4 D4 | D12 |] %16
w: ||||||Je- su, Ve-|ni!|
V:3
 B,4 B,4 B,4 | D6 C2 B,4 | A,6 A,2 G,4 | ^F,6 G,2 A,4 |[M:3/2] B,4 B,4 B,4 | D6 C2 B,4 | %6
 (A,2 A,2) A,4 G,4 | ^F,12 | F,4 B,4 B,4 | B,6 C2 D4 | C4 A,4 (F,2 F,2) | A,6 B,2 C4 | D4 C4 B,4 | %13
 A,6 G,2 ^F,4 | G,4 D6 C2 | =B,12 |] %16
V:4
 G,4 G,4 G,4 | G,4 G,4 G,4 | D,6 D,2 G,4 | D,6 D,2 D,4 |[M:3/2] G,,4 G,,4 G,,4 | G,6 G,2 G,4 | %6
w: Re- mem- ber|O thou man,|O thou man,|O thou man,|re- mem- ber|O thou man|
w: Re- mem- ber|A- dam's fall|O thou man,|O thou man,|re- mem- ber|A- dam's fall|
w: Re- mem- ber|God's good- ness|O thou man,|O thou man,|re- mem- ber|God's good- ness|
w: Give thanks to|God al- way|O thou man,|O thou man,|give thanks to|God al- way|
 (D,2 D,2) D,4 E,4 | D,12 | B,,4 B,,4 B,,4 | B,,6 B,,2 B,,4 | F,4 F,4 (F,2 F,2) | F,6 F,2 F,4 | %12
w: thy * time is|spent,|re- mem- ber|O thou man,|how thou art *|dead and gone,|
w: from * heav'n to|hell,|re- mem- ber|A- dam's fall|how we were con-|dem- ned all|
w: and his pro- mise|made,|re- mem- ber|God's good- ness|how he sent his|son doubt- less|
w: with * heart most|joy\-ful\-ly|give thanks to|God al- way|[as we- a *|wait- that day,]|
 B,,4 F,4 G,4 | D,6 D,2 D,4 | C,4 D,4 D,4 | G,,12 |] %16
w: and I did|what I can,|there- fore re-|pent.|
w: in hell per-|pe- tu- al,|there- fore to|dwell.|
w: our sins for|to re- dress,|be not a-|fraid.|
w: let all men|sing and say,|||

